Papirus/16x16/devices/camera-photo.svg

<?xml version="1.0" encoding="UTF-8" standalone="no"?>
<!--Created with Inkscape (http://www.inkscape.org/)-->
<svg id="svg7384" xmlns:rdf="http://www.w3.org/1999/02/22-rdf-syntax-ns#" style="enable-background:new" xmlns="http://www.w3.org/2000/svg" height="16" width="16" version="1.1" xmlns:cc="http://creativecommons.org/ns#" xmlns:dc="http://purl.org/dc/elements/1.1/">
 <metadata id="metadata90">
  <rdf:RDF>
   <cc:Work rdf:about="">
    <dc:format>image/svg+xml</dc:format>
    <dc:type rdf:resource="http://purl.org/dc/dcmitype/StillImage"/>
   </cc:Work>
  </rdf:RDF>
 </metadata>
 <defs id="defs7386">
  <filter id="filter7554" style="fill-interpolation-filters:sRGB">
   <feBlend id="feBlend7556" in2="BackgroundImage" mode="darken"/>
  </filter>
 </defs>
 <g id="layer10" filter="url(#filter7554)" transform="translate(-265 139.03)">
  <path id="path4152" opacity="1" fill="#5c616c" d="m3 1v1h-1s-1 0-1 1v10s0 1 1 1h12s1 0 1-1v-10c0-1-1-1-1-1h-8v-1h-3zm5 3a4 4 0 0 1 4 4 4 4 0 0 1 -4 4 4 4 0 0 1 -4 -4 4 4 0 0 1 4 -4zm0 2a2 2 0 0 0 -2 2 2 2 0 0 0 2 2 2 2 0 0 0 2 -2 2 2 0 0 0 -2 -2z" transform="translate(265 -139.03)"/>
 </g>
</svg>

<?xml version="1.0" encoding="UTF-8" standalone="no"?>
<svg xmlns="http://www.w3.org/2000/svg" viewBox="0 0 16 16">
  <defs>
    <style type="text/css" id="current-color-scheme">
      .ColorScheme-Text {
        color:#000000;
      }
      </style>
  </defs>
  <path 
     style="fill:currentColor;opacity:1"
     class="ColorScheme-Text"
     d="M 3 1 L 3 2 L 2 2 C 2 2 1 2 1 3 L 1 13 C 1 13 1 14 2 14 L 14 14 C 14 14 15 14 15 13 L 15 3 C 15 2 14 2 14 2 L 6 2 L 6 1 L 3 1 z M 8 4 A 4 4 0 0 1 12 8 A 4 4 0 0 1 8 12 A 4 4 0 0 1 4 8 A 4 4 0 0 1 8 4 z M 8 6 A 2 2 0 0 0 6 8 A 2 2 0 0 0 8 10 A 2 2 0 0 0 10 8 A 2 2 0 0 0 8 6 z "
      />
</svg>
